X: 14
M:6/8
L:1/8
K:G
d/2c/2|BGB BGB|AFA ABc|ded cAF|GBd g2 d/2c/2|
|:B/2c/2|def gag|fed cBc|def gag|fef g2 B/2c/2|
1def gag|fed cAG|B/2c/2dB cAF|AGF G2:|
2dgb afd|e/2f/2ge dBG|B/2c/2dB cAF|AGF G2||

